src/icons/Medium.svg

<?xml version="1.0" encoding="UTF-8" standalone="no"?>
<svg width="256px" height="208px" viewBox="0 0 256 208" version="1.1" xmlns="http://www.w3.org/2000/svg" xmlns:xlink="http://www.w3.org/1999/xlink" preserveAspectRatio="xMidYMid">
	<g>
		<path d="M177.735242,1.67620228 C173.837865,-0.18165739 170.650604,1.69271659 170.650604,5.85432226 L170.650604,171.360719 L241.794244,205.322394 C249.622026,209.120685 255.971777,206.478396 255.971777,199.542386 L255.971777,40.1793119 C255.971777,39.5187396 255.55892,38.9407388 254.94789,38.6104526 L177.743499,1.78354529 L177.743499,1.70097375 L177.735242,1.67620228 L177.735242,1.67620228 Z" fill="#32FC8D"></path>
		<path d="M85.3211734,130.636435 L166.488998,4.73960646 C168.784487,1.18903019 173.837865,-0.214686007 177.718728,1.6018879 L255.038719,38.5113668 C255.534148,38.7590814 255.715806,39.3370822 255.426805,39.7499399 L170.642347,171.377233 L85.3211734,130.652949 L85.3211734,130.636435 L85.3211734,130.636435 Z" fill="#0BE370"></path>
		<path d="M11.8077304,3.9221482 C5.31760724,0.825715411 3.1129471,3.12946141 6.91949514,9.04158375 L85.3211734,130.636435 L170.642347,171.360719 L85.5110879,39.3040535 C85.3872306,39.114139 85.2138304,38.9572531 85.0156587,38.8581672 L11.8077304,3.93040535 L11.8077304,3.9221482 L11.8077304,3.9221482 Z" fill="#14C767"></path>
		<path d="M85.3211734,199.476329 C85.3211734,206.412338 80.0118233,209.550057 73.513443,206.445367 L7.08463822,174.737895 C3.18726149,172.888293 0,167.967029 0,163.797166 L0,8.38101142 C0,2.83220386 4.25243436,0.32202901 9.45444145,2.8074324 L84.8670299,38.8086243 C85.1477731,38.9324816 85.3211734,39.2049677 85.3211734,39.5022252 L85.3211734,199.4433 L85.3211734,199.476329 L85.3211734,199.476329 Z" fill="#00AB6C"></path>
	</g>
</svg>

<svg width="256" height="208" viewBox="0 0 256 208" xmlns="http://www.w3.org/2000/svg" preserveAspectRatio="xMidYMid"><path d="M177.735 1.676c-3.897-1.858-7.084.017-7.084 4.178v165.507l71.143 33.961c7.828 3.799 14.178 1.156 14.178-5.78V40.18c0-.66-.413-1.238-1.024-1.569L177.743 1.784V1.7l-.008-.025z" fill="#32FC8D"/><path d="M85.321 130.636L166.49 4.74c2.295-3.551 7.349-4.955 11.23-3.138l77.32 36.91c.495.247.677.825.388 1.238l-84.785 131.627-85.32-40.724v-.017z" fill="#0BE370"/><path d="M11.808 3.922C5.318.826 3.113 3.13 6.919 9.042l78.402 121.594 85.321 40.725-85.13-132.057a1.285 1.285 0 0 0-.496-.446L11.808 3.93v-.008z" fill="#14C767"/><path d="M85.321 199.476c0 6.936-5.31 10.074-11.808 6.97L7.085 174.737C3.187 172.888 0 167.967 0 163.798V8.38C0 2.832 4.252.322 9.454 2.807L84.867 38.81c.28.123.454.396.454.693v159.974z" fill="#00AB6C"/></svg>
